X:111
T:My Love in Secret
T:Mo leannan falaich
R:Slow Air
S:Simon Fraser Collection
N:No.58
O:Scottish
M:C
L:1/8
Q:1/4=100
K:G
c|B/c/d d>e d>ed>c|B/c/d g>a b>de>c|B/c/d d>e d>ed>B|A>GAB g>f e:|
|:d/e/|g>a g/a/b d>edB|g>ab>a g>d e2|1 g>a g/a/b d>ed>B|
A>GA>B g>fe:|2 g>ab>a g>ed>B|G>A Bf e2||
